icons/black/secure_box.svg

<svg xmlns="http://www.w3.org/2000/svg" viewBox="0 0 48 48"><defs><style>.a,.b{fill:none;stroke:#000;}.a{stroke-linecap:round;stroke-linejoin:round;}.b{stroke-miterlimit:7;}</style></defs><path class="a" d="M11.628,18.36a13.0524,13.0524,0,0,1,21.6678-4.5742m2.6922,4.8208a55.5237,55.5237,0,0,1,1.9271,23.874"/><path class="a" d="M15.61,7.5417A17.9178,17.9178,0,0,0,7.8763,15.44m28.139-5.1458a13.5174,13.5174,0,0,1,3.3715,4.3711"/><path class="a" d="M5.5,10.269A22.6788,22.6788,0,0,1,9.5368,5.9434m28.55-.0927a22.6861,22.6861,0,0,1,3.9879,4.1941"/><path class="a" d="M10.855,23.677a96.4955,96.4955,0,0,1,.3841,10.073m-.3241,5.9892c-.0926.924-.2077,1.8424-.35,2.741"/><path class="a" d="M15.073,42.48a30.7064,30.7064,0,0,0,.5789-4.4675m18.12-.0168c-.0636,1.4147-.17,2.9108-.3308,4.4843"/><path class="a" d="M19.582,40.062c.05-.6924.09-1.387.1383-2.07m9.3569,2.2087c-.0687.7883-.1536,1.5617-.2333,2.2793"/><path class="a" d="M24.453,38.032c-.0247.8874-.0657,1.7706-.1267,2.634-.0412.5827-.1543,1.2547-.2149,1.8147"/><path class="a" d="M19.365,17.209a4.4073,4.4073,0,0,1,8.8146,0v2.3619"/><rect class="a" x="15.323" y="19.739" width="16.899" height="15.778" rx="1.5672"/><path class="b" d="M19.365,17.209v2.53"/><circle class="a" cx="23.772" cy="27.01" r="2.2552"/><path class="a" d="M40.5,5.5H7.5a2,2,0,0,0-2,2v33a2,2,0,0,0,2,2h33a2,2,0,0,0,2-2V7.5A2,2,0,0,0,40.5,5.5Z"/></svg>

<?xml version="1.0" encoding="UTF-8"?><svg id="a" xmlns="http://www.w3.org/2000/svg" viewBox="0 0 48 48"><defs><style>.b{stroke-miterlimit:7;}.b,.c{fill:none;stroke:#000;}.c{stroke-linecap:round;stroke-linejoin:round;}</style></defs><path class="c" d="M11.628,18.36c1.8152-5.0033,6.6106-8.5776,12.241-8.5776,3.7223,0,7.0797,1.5623,9.4268,4.0034M35.988,18.6066c.1294.6645,3.8167,10.984,1.9271,23.874"/><path class="c" d="M15.61,7.5417c-3.3396,1.7468-6.0571,4.5196-7.7337,7.8985M36.0153,10.2944c1.3035,1.0627,2.4316,2.5397,3.3715,4.3711"/><path class="c" d="M5.5,10.269c1.1514-1.6129,2.5099-3.0677,4.0368-4.3256M38.0868,5.8507c1.5015,1.2209,2.8429,2.631,3.9879,4.1941"/><path class="c" d="M10.855,23.677s.4649,4.5343.3841,10.073M10.915,39.7392c-.0925.924-.2077,1.8424-.3496,2.741"/><path class="c" d="M15.073,42.48c.335-1.4752.4631-2.9673.5789-4.4675M33.7719,37.9957c-.0636,1.4147-.1704,2.9108-.3308,4.4843"/><path class="c" d="M19.582,40.062c.0497-.6924.09-1.387.1383-2.0696M29.0772,40.2011c-.0686.7883-.1536,1.5617-.2333,2.2793"/><path class="c" d="M24.453,38.032c-.0247.8874-.0657,1.7706-.1267,2.634-.0412.5827-.1543,1.2547-.2149,1.8147"/><path class="c" d="M19.365,17.209c0-2.4341,1.9732-4.4073,4.4073-4.4073s4.4073,1.9732,4.4073,4.4073v2.3619"/><rect class="c" x="15.323" y="19.739" width="16.899" height="15.778" rx="1.5672" ry="1.5672"/><path class="b" d="M19.365,17.209v2.5298"/><circle class="c" cx="23.772" cy="27.01" r="2.2552"/><path class="c" d="M38.5,5.5001H9.4999c-2.2091,0-4,1.7909-4,4v29c0,2.2091,1.7909,4,4,4h29c2.2091,0,4-1.7909,4-4V9.5001c0-2.2091-1.7909-4-4-4Z"/></svg>
